src/bright/hiso font bright_y.svg

<svg xmlns="http://www.w3.org/2000/svg" width="90" height="126" viewBox="0 0 90 126"><path fill="#000101" d="M72 36l-36-18-12 30-24-12 17.998 26.998.002 36.002 36 18v-36l-30.58-15.29-.01-.004v-.006l-14.64-21.96 30.58 15.291 14.65 21.969z"/></svg>

<svg xmlns="http://www.w3.org/2000/svg" width="90" height="126"><path fill="#000101" d="M72 36L36 18 24 48 0 36l17.998 26.998L18 99l36 18V81L23.42 65.71l-.01-.004V65.7L8.77 43.74l30.58 15.291L54 81z"/></svg>
